X: 136002
T: SORRY TO PART
Q: "Irish Jig."
R: Jig.
%R: jig
B: James Kerr "Merry Melodies" v.1 p.36 s.0 #2
Z: 2016 John Chambers <jc:trillian.mit.edu>
M: 6/8
L: 1/8
K: A
af !segno!|\
ecB cAF | EAA uA2uB | cff ecA | cBB Baf |\
ecB cAF | EAA A2B | cff ecB | cAA A2 H|]
ue |\
a3 gfe | cee efg | a3 gfe | cff f2g |\
agb agf | cee efg | a2f b2a | gfg a"_D.C."gf |]

%%sep 1 1 500
%%sep 1 1 500

